img/advantage/grey/icon-1.svg

<svg width="65" height="55" viewBox="0 0 65 55" fill="none" xmlns="http://www.w3.org/2000/svg">
<path d="M53.2564 20.9563H11.7434C11.2172 20.9563 10.7905 21.3829 10.7905 21.9092C10.7905 22.4356 11.2171 22.8621 11.7434 22.8621H53.2564C53.7826 22.8621 54.2093 22.4356 54.2093 21.9092C54.2093 21.3829 53.7826 20.9563 53.2564 20.9563Z" fill="#9898A7"/>
<path d="M38.4713 25.7632H11.7434C11.2172 25.7632 10.7905 26.1897 10.7905 26.7161C10.7905 27.2424 11.2171 27.669 11.7434 27.669H38.4713C38.9975 27.669 39.4242 27.2424 39.4242 26.7161C39.424 26.1897 38.9975 25.7632 38.4713 25.7632Z" fill="#9898A7"/>
<path d="M35.422 32.4753C35.9482 32.4753 36.3749 32.0487 36.3749 31.5224C36.3749 30.996 35.9483 30.5695 35.422 30.5695H11.7434C11.2172 30.5695 10.7905 30.996 10.7905 31.5224C10.7905 32.0487 11.2171 32.4753 11.7434 32.4753H35.422Z" fill="#9898A7"/>
<path d="M39.4475 16.2138C40.5795 16.2138 41.5005 15.2928 41.5005 14.1609V12.4856C41.5005 11.3535 40.5795 10.4326 39.4475 10.4326H25.5522C24.4202 10.4326 23.4993 11.3537 23.4993 12.4856V14.1609C23.4993 15.2929 24.4202 16.2138 25.5522 16.2138H39.4475ZM25.4051 14.1609V12.4856C25.4051 12.4043 25.4711 12.3383 25.5524 12.3383H39.4476C39.5287 12.3383 39.5949 12.4043 39.5949 12.4856V14.1609C39.5949 14.2421 39.5289 14.3081 39.4476 14.3081H25.5522C25.4711 14.3081 25.4051 14.2421 25.4051 14.1609Z" fill="#9898A7"/>
<path d="M35.8772 39.8232H11.9303C11.3212 37.3422 9.41865 35.4058 6.94903 34.7535V25.8723C6.94903 25.346 6.52247 24.9194 5.99612 24.9194C5.46977 24.9194 5.04321 25.346 5.04321 25.8723V34.7852C5.04321 35.6368 5.61298 36.3778 6.42852 36.5871C8.2489 37.0548 9.65085 38.4813 10.0873 40.3101C10.2866 41.1456 11.0311 41.7289 11.8977 41.7289H35.8771C36.4033 41.7289 36.83 41.3024 36.83 40.776C36.8301 40.2498 36.4034 39.8232 35.8772 39.8232Z" fill="#9898A7"/>
<path d="M58.571 10.7042C56.7507 10.2365 55.3486 8.80997 54.9123 6.98121C54.713 6.14573 53.9685 5.56238 53.1019 5.56238H11.8978C11.0312 5.56238 10.2867 6.14573 10.0876 6.98108C9.65109 8.80984 8.24915 10.2364 6.42902 10.7041C5.61322 10.9136 5.04346 11.6545 5.04346 12.5061V21.4176C5.04346 21.9439 5.47002 22.3705 5.99637 22.3705C6.52271 22.3705 6.94928 21.9439 6.94928 21.4176V12.5381C9.41864 11.8857 11.3213 9.94937 11.9305 7.4682H53.0694C53.6787 9.94924 55.5811 11.8857 58.0507 12.5379V29.4581C58.0507 29.9845 58.4773 30.411 59.0036 30.411C59.53 30.411 59.9565 29.9845 59.9565 29.4581V12.5061C59.9564 11.6546 59.3865 10.9136 58.571 10.7042Z" fill="#9898A7"/>
<path d="M60.6097 0.637695H4.39029C1.96955 0.637695 0 2.60725 0 5.02811V42.2632C0 44.6841 1.96955 46.6536 4.39029 46.6536H42.8214L41.2586 50.7415C40.837 51.8442 41.8453 52.9605 42.9856 52.6533L44.7421 52.1791L45.7363 53.7058C46.3812 54.6961 47.8767 54.5353 48.2978 53.4331L49.6308 49.946L50.9639 53.4331C51.3858 54.5369 52.8814 54.695 53.5255 53.7058L54.5196 52.1791L56.276 52.6533C57.4156 52.961 58.4248 51.8446 58.0031 50.7414L56.4403 46.6536H60.6096C63.0304 46.6536 64.9999 44.6841 64.9999 42.2632V5.02811C65 2.60725 63.0304 0.637695 60.6097 0.637695ZM41.4573 35.5634C40.982 35.1559 41.2381 34.386 41.8562 34.3361C43.4486 34.2075 44.5499 32.6888 44.1806 31.1367C44.037 30.5336 44.6899 30.052 45.2246 30.3782C46.5885 31.2102 48.3722 30.6288 48.9856 29.1562C49.2245 28.5824 50.0358 28.5792 50.2761 29.1562C50.89 30.6305 52.6754 31.2094 54.0372 30.3782C54.5676 30.0546 55.2259 30.5287 55.0812 31.1367C54.7113 32.6907 55.8151 34.2077 57.4057 34.3361C58.0266 34.3863 58.2778 35.1574 57.8044 35.5634C56.5916 36.6031 56.5933 38.4795 57.8044 39.518C58.2797 39.9255 58.0237 40.6953 57.4055 40.7452C55.8132 40.8738 54.7118 42.3926 55.0812 43.9447C55.2255 44.5509 54.5698 45.0277 54.0372 44.7031C52.6736 43.8713 50.8894 44.4524 50.2762 45.9252C50.0381 46.4971 49.2265 46.5033 48.9858 45.9252C48.3722 44.452 46.5865 43.8722 45.2248 44.7033C44.6926 45.0275 44.0362 44.5514 44.1807 43.9447C44.5505 42.3907 43.4468 40.8737 41.8562 40.7452C41.2353 40.6951 40.984 39.924 41.4574 39.518C42.67 38.4782 42.6684 36.6019 41.4573 35.5634ZM46.8402 51.9087L46.1566 50.8588C45.8137 50.3322 45.1755 50.0887 44.5685 50.252L43.3615 50.5778L44.8373 46.7175C45.3098 46.7212 45.785 46.5937 46.2173 46.33C46.583 46.1068 47.0615 46.262 47.2266 46.6581C47.4609 47.2207 47.8606 47.6616 48.3586 47.9375L46.8402 51.9087ZM54.6931 50.252C54.0861 50.0881 53.4482 50.3324 53.1053 50.8588L52.4215 51.9087L50.9033 47.9375C51.4013 47.6615 51.8009 47.2207 52.0354 46.6581C52.1998 46.2631 52.6776 46.1062 53.0447 46.3302C53.477 46.594 53.9522 46.7213 54.4245 46.7176L55.9004 50.5779L54.6931 50.252ZM63.0943 42.2632C63.0943 43.6332 61.9797 44.7478 60.6097 44.7478H56.9319C57.0306 44.3517 57.0362 43.9282 56.9352 43.5035C56.8704 43.2315 56.9791 43.0279 57.0497 42.9309C57.1203 42.8337 57.2802 42.6674 57.5589 42.6448C59.8666 42.4587 60.8047 39.5802 59.045 38.0713C58.7196 37.7924 58.7192 37.2894 59.045 37.0101C60.8023 35.5031 59.8694 32.623 57.5589 32.4367C57.1316 32.402 56.8358 31.9954 56.9352 31.5779C57.4712 29.3261 55.0236 27.5439 53.0446 28.7515C52.6789 28.9746 52.2002 28.8195 52.0354 28.4234C52.0353 28.4234 52.0353 28.4234 52.0353 28.4234C51.1451 26.2863 48.1178 26.2835 47.2263 28.4234C47.0615 28.8189 46.5834 28.975 46.217 28.7515C44.2395 27.5444 41.7902 29.3248 42.3264 31.5779C42.4256 31.9947 42.1305 32.402 41.7028 32.4367C39.395 32.6228 38.457 35.5013 40.2167 37.0101C40.5421 37.2892 40.5425 37.792 40.2167 38.0713C38.4593 39.5785 39.3924 42.4586 41.7028 42.6448C42.13 42.6795 42.426 43.086 42.3266 43.5035C42.2255 43.9282 42.2311 44.3518 42.3299 44.7478H4.39029C3.02034 44.7478 1.90569 43.6332 1.90569 42.2632V5.02811C1.90569 3.65816 3.02034 2.54352 4.39029 2.54352H60.6096C61.9795 2.54352 63.0942 3.65816 63.0942 5.02811V42.2632H63.0943Z" fill="#9898A7"/>
<path d="M49.6308 43.1194C52.7069 43.1194 55.2095 40.6169 55.2095 37.5409C55.2095 34.4648 52.7069 31.9622 49.6308 31.9622C46.5547 31.9622 44.0522 34.4648 44.0522 37.5409C44.0522 40.6169 46.5549 43.1194 49.6308 43.1194ZM49.6308 33.8678C51.6561 33.8678 53.3038 35.5156 53.3038 37.5409C53.3038 39.566 51.6561 41.2137 49.6308 41.2137C47.6057 41.2137 45.9579 39.566 45.9579 37.5409C45.9579 35.5154 47.6057 33.8678 49.6308 33.8678Z" fill="#9898A7"/>
</svg>

<svg width="65" height="55" fill="none" xmlns="http://www.w3.org/2000/svg"><path d="M53.256 20.956H11.743a.953.953 0 0 0 0 1.906h41.513a.953.953 0 1 0 0-1.906zM38.471 25.763H11.743a.953.953 0 1 0 0 1.906h26.728a.953.953 0 0 0 0-1.906zM35.422 32.475a.953.953 0 0 0 0-1.905H11.743a.953.953 0 1 0 0 1.905h23.679zM39.447 16.214A2.055 2.055 0 0 0 41.5 14.16v-1.675a2.055 2.055 0 0 0-2.053-2.053H25.552a2.055 2.055 0 0 0-2.053 2.053v1.675c0 1.132.921 2.053 2.053 2.053h13.895zM25.405 14.16v-1.675c0-.082.066-.148.147-.148h13.896c.08 0 .147.066.147.148v1.675a.147.147 0 0 1-.147.147H25.552a.147.147 0 0 1-.147-.147z" fill="#9898A7"/><path d="M35.877 39.823H11.93a6.944 6.944 0 0 0-4.981-5.07v-8.88a.953.953 0 1 0-1.906 0v8.912c0 .852.57 1.593 1.386 1.802a5.043 5.043 0 0 1 3.658 3.723 1.85 1.85 0 0 0 1.81 1.419h23.98a.953.953 0 0 0 0-1.906zM58.571 10.704a5.043 5.043 0 0 1-3.659-3.723 1.85 1.85 0 0 0-1.81-1.419H11.898a1.85 1.85 0 0 0-1.81 1.42 5.043 5.043 0 0 1-3.659 3.722c-.816.21-1.386.95-1.386 1.802v8.912a.953.953 0 1 0 1.906 0v-8.88a6.944 6.944 0 0 0 4.982-5.07h41.138a6.944 6.944 0 0 0 4.982 5.07v16.92a.953.953 0 1 0 1.905 0V12.506c0-.851-.57-1.592-1.385-1.802z" fill="#9898A7"/><path d="M60.61.638H4.39C1.97.638 0 2.608 0 5.028v37.235c0 2.421 1.97 4.39 4.39 4.39h38.431l-1.562 4.089c-.422 1.102.586 2.219 1.727 1.911l1.756-.474.994 1.527c.645.99 2.14.83 2.562-.273l1.333-3.487 1.333 3.487c.422 1.104 1.917 1.262 2.562.273l.994-1.527 1.756.474c1.14.308 2.149-.808 1.727-1.912l-1.563-4.087h4.17c2.42 0 4.39-1.97 4.39-4.39V5.027c0-2.42-1.97-4.39-4.39-4.39zM41.457 35.563a.698.698 0 0 1 .4-1.227 2.605 2.605 0 0 0 2.324-3.2.698.698 0 0 1 1.044-.758 2.605 2.605 0 0 0 3.76-1.222.698.698 0 0 1 1.291 0 2.605 2.605 0 0 0 3.761 1.222.698.698 0 0 1 1.044.759 2.605 2.605 0 0 0 2.325 3.2c.62.05.872.82.398 1.226a2.605 2.605 0 0 0 0 3.955.698.698 0 0 1-.398 1.227 2.605 2.605 0 0 0-2.325 3.2.698.698 0 0 1-1.044.758 2.605 2.605 0 0 0-3.76 1.222.698.698 0 0 1-1.291 0 2.606 2.606 0 0 0-3.761-1.222.698.698 0 0 1-1.044-.758 2.605 2.605 0 0 0-2.325-3.2.698.698 0 0 1-.399-1.227 2.605 2.605 0 0 0 0-3.955zM46.84 51.91l-.683-1.05a1.443 1.443 0 0 0-1.588-.607l-1.208.326 1.476-3.86c.473.003.948-.124 1.38-.388a.699.699 0 0 1 1.01.328 2.582 2.582 0 0 0 1.132 1.28l-1.519 3.97zm7.853-1.657a1.442 1.442 0 0 0-1.588.607l-.683 1.05-1.519-3.971a2.584 2.584 0 0 0 1.132-1.28.698.698 0 0 1 1.01-.328 2.6 2.6 0 0 0 1.38.388l1.475 3.86-1.207-.326zm8.401-7.989a2.487 2.487 0 0 1-2.484 2.485h-3.678a2.62 2.62 0 0 0 .003-1.244.69.69 0 0 1 .115-.573.69.69 0 0 1 .509-.286c2.308-.186 3.246-3.065 1.486-4.574a.699.699 0 0 1 0-1.06c1.757-1.508.824-4.388-1.486-4.574a.699.699 0 0 1-.624-.86c.536-2.25-1.911-4.033-3.89-2.826a.699.699 0 0 1-1.01-.328c-.89-2.137-3.917-2.14-4.809 0a.699.699 0 0 1-1.009.329c-1.977-1.208-4.427.573-3.89 2.826a.699.699 0 0 1-.624.859c-2.308.186-3.246 3.064-1.486 4.573a.699.699 0 0 1 0 1.061c-1.758 1.508-.825 4.388 1.486 4.574a.699.699 0 0 1 .624.858c-.102.425-.096.849.003 1.245H4.39a2.487 2.487 0 0 1-2.484-2.485V5.028A2.487 2.487 0 0 1 4.39 2.544h56.22a2.488 2.488 0 0 1 2.484 2.484v37.235z" fill="#9898A7"/><path d="M49.63 43.12a5.585 5.585 0 0 0 5.58-5.58 5.585 5.585 0 0 0-5.58-5.578 5.585 5.585 0 0 0-5.578 5.579 5.585 5.585 0 0 0 5.579 5.578zm0-9.252a3.677 3.677 0 0 1 3.674 3.673 3.677 3.677 0 0 1-3.673 3.673 3.677 3.677 0 0 1-3.673-3.673 3.677 3.677 0 0 1 3.673-3.673z" fill="#9898A7"/></svg>
